X:20
T:Drunken Meg Young
M:6/8
L:1/8
K:Dmix
A|(FD)F    TA2F    |(EC)E    G2E|(FD)F     A2g    | (f/g/a)f d2:|
g|(f/g/a)f (e/f/g)e| c>de/f/ g2a|(f/g/a)f (e/f/g)e|(^cA)c    d2:|

% @@@@@@@@@@@@@@@@@@@@@@@@@@@@@@@@@@

%% 21. ===============================================================================

% @THE MILLER@
%    of
%   ^Drone.^
%
% *FIRST pair lead up, sett, and turn, 2d pair lead down, sett, and turn at the same;
% the two Pairs meet and sett: then the Man setts to the Woman on the side, and the
% Woman to the Man on the side at the same time, and turn your Partner to her place.
% *Lead down two pair and cast up one, and sett a little; go Right and Left with the
% first pair and sett a little.

% @@@@@@@@@@@@@@@@@@@@@@@@@@@@@@@@@@

